!!!OTL: 102. Hopke
!!!Genre:	Hopke
!!!Mode:	Freygish
!!!Listening/dance:	dance
!!!:	*F:; *C:
!!!One_Mode:	no
**kern
*thru
*part1
*staff1
*clefG2
*>A
*k[b-e-a-]
*G:frey
*M2/4
=1-
!LO:TX:a:i:t=G-freygish
(>8qg/
16bnLL)
16ccJ
[8ddJ
16ddLL]
16ff
16ee-
16ddJJ
=2
16ccLL
16ee-
16dd
16ccJJ
8bnL
8ccJ
=3
16ddLL
16ee-
16dd
16ccJJ
16bnLL
16cc
16b
16a-JJ
=4
8gL
8bn
8dd
8ggJ
=5
16bnLL
16ccJ
[8ddJ
16ddLL]
16ff
16ee-
16ddJJ
=6
16ccLL
16ee-
16dd
16ccJJ
8bnL
8ccJ
=7
16ddLL
16ee-
16dd
16ccJJ
16bnLL
16cc
16b
16a-JJ
*>A1
=8
4g
4gg
*>A
!LO:TX:a:i:t=G-freygish
(>8qg/
16bnLL)
16ccJ
[8ddJ
16ddLL]
16ff
16ee-
16ddJJ
=2
16ccLL
16ee-
16dd
16ccJJ
8bnL
8ccJ
=3
16ddLL
16ee-
16dd
16ccJJ
16bnLL
16cc
16b
16a-JJ
=4
8gL
8bn
8dd
8ggJ
=5
16bnLL
16ccJ
[8ddJ
16ddLL]
16ff
16ee-
16ddJJ
=6
16ccLL
16ee-
16dd
16ccJJ
8bnL
8ccJ
=7
16ddLL
16ee-
16dd
16ccJJ
16bnLL
16cc
16b
16a-JJ
*>A2
=9:|!
[4g
8gL]
*>B
!!!Begin-Modulation
*G:frey
!LO:TX:a:i:t=G-freygish
=16
16fLL
16bn
16dd
16ccJJ
8.bL
16a-XJk
*>B1
=17
(<16a-XLL
16gJJ)
4g
16fLL
16anJJ
*>B
!!!Begin-Modulation
*G:frey
!LO:TX:a:i:t=G-freygish
=16
16fLL
16bn
16dd
16ccJJ
8.bL
16a-XJk
*>B2
!!!End-Modulation1
=18:|!
(16a-XLL
16gJJ)
[4g
8g']
*>C
!!!Begin-Modulation
*G:frey
*k[b-e-a-]
!LO:TX:a:i:t=G-freygish
4gg
16ffLL
16ee-
16dd
16ccJJ
=30
16bnLL
16ccJ
[8ddJ
16ddLL]
16ff
16ee-
16ddJJ
=31
16ccLL
16f
16g
16a-JJ
16bnLL
16cc
16a-
16bJJ
=32
4g
4gg
=33
(>16bb-XLL
16aan
16aa-X
16ggJJ
16ff#XLL
16ffn
16een
16ee-XJJ)
=34
16ee-LL
16dd
16ff
16ee-JJ
8.ddL
16ccJk
=35
16bnLL
16cc
16dd
16ccJJ
8.btL
16a-Jk
=36
16a-LL
16gJJ
4g
8r
=:|!
*>D
*k[b-e-a-]
!LO:TX:a:i:t=G-freygish
4gg
16ffLL
16ee-
16dd
16ccJJ
=30
16bnLL
16ccJ
[8ddJ
16ddLL]
16ff
16ee-
16ddJJ
=31
16ccLL
16f
16g
16a-JJ
16bnLL
16cc
16a-
16bJJ
=32
4g
4gg
=33
(>16bb-XLL
16aan
16aa-X
16ggJJ
16ff#XLL
16ffn
16een
16ee-XJJ)
=34
16ee-LL
16dd
16ff
16ee-JJ
8.ddL
16ccJk
=35
16bnLL
16cc
16dd
16ccJJ
8.btL
16a-Jk
=36
16a-LL
16gJJ
4g
8r
=:|!
*-
